dist/img/icons/values/2.svg

<svg width="42" height="41" viewBox="0 0 42 41" fill="none" xmlns="http://www.w3.org/2000/svg">
<path d="M38.7713 27.899C39.6091 25.7284 40.0696 23.3727 40.0696 20.9085C40.0696 18.1315 39.4844 15.4885 38.4355 13.0977" stroke="#F7F7F6" stroke-width="2" stroke-miterlimit="10" stroke-linecap="round" stroke-linejoin="round"/>
<path d="M20.158 20.267C20.1676 20.267 20.1804 20.267 20.19 20.267C20.1932 20.1744 20.1932 20.0787 20.1964 19.9861C20.1804 19.9861 20.1644 19.9861 20.1484 19.9861C20.1548 20.0787 20.1548 20.1744 20.158 20.267Z" stroke="#F7F7F6" stroke-width="2" stroke-miterlimit="10" stroke-linecap="round" stroke-linejoin="round"/>
<path d="M20.1732 20.9085C20.1732 20.6914 20.1828 20.4775 20.1892 20.2637C20.1796 20.2637 20.1668 20.2637 20.1572 20.2637C20.1636 20.4807 20.1732 20.6946 20.1732 20.9085Z" stroke="#F7F7F6" stroke-width="2" stroke-miterlimit="10" stroke-linecap="round" stroke-linejoin="round"/>
<path d="M20.097 19.983C13.2667 19.8202 7.30618 16.159 3.95179 10.7198C2.2762 8.00019 1.24973 4.84009 1.08984 1.45337C4.56575 1.52679 7.82102 2.50354 10.6222 4.16658C14.21 6.29565 17.056 9.53874 18.6772 13.4202C18.6772 13.4202 10.6734 15.977 5.97274 6.81595" stroke="#F7F7F6" stroke-width="2" stroke-miterlimit="10" stroke-linecap="round" stroke-linejoin="round"/>
<path d="M39.6764 1.44336C36.2037 1.44336 32.9453 2.35308 30.1217 3.94271C24.4394 7.13791 20.5222 13.091 20.1992 19.9858C20.3239 19.9889 20.4454 19.9953 20.567 19.9953C27.5923 19.9953 33.7511 16.283 37.1822 10.7193C38.8578 7.99975 39.8843 4.83966 40.0442 1.45294C39.9226 1.44974 39.7979 1.44336 39.6764 1.44336Z" stroke="#F7F7F6" stroke-width="2" stroke-miterlimit="10" stroke-linecap="round" stroke-linejoin="round"/>
<path d="M20.158 20.376C20.1676 20.376 20.1804 20.376 20.19 20.376C20.1932 20.4685 20.1932 20.5643 20.1964 20.6569C20.1804 20.6569 20.1644 20.6569 20.1484 20.6569C20.1548 20.5675 20.1548 20.4717 20.158 20.376Z" stroke="#F7F7F6" stroke-width="2" stroke-miterlimit="10" stroke-linecap="round" stroke-linejoin="round"/>
<path d="M20.1732 19.7344C20.1732 19.9514 20.1828 20.1653 20.1892 20.3792C20.1796 20.3792 20.1668 20.3792 20.1572 20.3792C20.1636 20.1621 20.1732 19.9514 20.1732 19.7344Z" stroke="#F7F7F6" stroke-width="2" stroke-miterlimit="10" stroke-linecap="round" stroke-linejoin="round"/>
<path d="M3.95179 29.9263C2.2762 32.6459 1.24973 35.806 1.08984 39.1927C4.56575 39.1193 7.82102 38.1425 10.6222 36.4795C16.0935 33.2332 19.838 27.395 20.1546 20.6631C13.2987 20.8035 7.31577 24.4712 3.95179 29.9263Z" stroke="#F7F7F6" stroke-width="2" stroke-miterlimit="10" stroke-linecap="round" stroke-linejoin="round"/>
<path d="M21.503 26.8078C23.1499 31.0149 26.2165 34.5069 30.1209 36.703C32.9444 38.2894 36.2029 39.2024 39.6756 39.2024C39.8003 39.2024 39.9218 39.196 40.0433 39.1928C39.8834 35.8061 38.857 32.646 37.1814 29.9264C33.7503 24.3627 27.5915 20.6504 20.5661 20.6504C20.5246 20.6504 20.483 20.6504 20.4414 20.6536" stroke="#F7F7F6" stroke-width="2" stroke-miterlimit="10" stroke-linecap="round" stroke-linejoin="round"/>
<path d="M2.29827 27.899C1.46047 25.7284 1 23.3727 1 20.9085C1 18.1315 1.58517 15.4885 2.63402 13.0977" stroke="#F7F7F6" stroke-width="2" stroke-miterlimit="10" stroke-linecap="round" stroke-linejoin="round"/>
<path d="M13.1221 2.29596C15.2965 1.45965 17.6564 1 20.1218 1C22.9038 1 25.5516 1.58414 27.9466 2.63112" stroke="#F7F7F6" stroke-width="2" stroke-miterlimit="10" stroke-linecap="round" stroke-linejoin="round"/>
<path d="M13.123 38.7043C15.2975 39.5406 17.6574 40.0003 20.1228 40.0003C22.9048 40.0003 25.5525 39.4161 27.9476 38.3691" stroke="#F7F7F6" stroke-width="2" stroke-miterlimit="10" stroke-linecap="round" stroke-linejoin="round"/>
</svg>

<svg width="42" height="41" viewBox="0 0 42 41" fill="none" xmlns="http://www.w3.org/2000/svg"><path d="M38.771 27.899a19.368 19.368 0 001.299-6.99 19.4 19.4 0 00-1.635-7.811m-18.277 7.169h.032c.003-.093.003-.188.006-.28h-.048c.007.092.007.187.01.28z" stroke="#F7F7F6" stroke-width="2" stroke-miterlimit="10" stroke-linecap="round" stroke-linejoin="round"/><path d="M20.173 20.909c0-.218.01-.431.016-.645h-.032c.007.217.016.43.016.645zm-.076-.926A19.492 19.492 0 013.952 10.72 19.363 19.363 0 011.09 1.453a19.424 19.424 0 019.532 2.714 19.542 19.542 0 018.055 9.253s-8.004 2.557-12.704-6.604m33.703-5.373c-3.472 0-6.73.91-9.554 2.5-5.683 3.195-9.6 9.148-9.923 16.043.125.003.246.01.368.01 7.025 0 13.184-3.713 16.615-9.277a19.363 19.363 0 002.862-9.266c-.121-.003-.246-.01-.368-.01z" stroke="#F7F7F6" stroke-width="2" stroke-miterlimit="10" stroke-linecap="round" stroke-linejoin="round"/><path d="M20.158 20.376h.032c.003.092.003.188.006.28h-.048c.007-.088.007-.184.01-.28z" stroke="#F7F7F6" stroke-width="2" stroke-miterlimit="10" stroke-linecap="round" stroke-linejoin="round"/><path d="M20.173 19.734c0 .217.01.431.016.645h-.032c.007-.217.016-.428.016-.645zM3.952 29.926a19.363 19.363 0 00-2.862 9.267 19.424 19.424 0 009.532-2.713c5.471-3.247 9.216-9.085 9.533-15.817a19.48 19.48 0 00-16.203 9.263zm17.551-3.118a19.552 19.552 0 008.618 9.895 19.45 19.45 0 009.555 2.5c.124 0 .246-.007.367-.01a19.363 19.363 0 00-2.862-9.267c-3.43-5.563-9.59-9.276-16.615-9.276-.041 0-.083 0-.125.004M2.298 27.899A19.368 19.368 0 011 20.909a19.4 19.4 0 011.634-7.811M13.122 2.296a19.458 19.458 0 017-1.296c2.782 0 5.43.584 7.825 1.631M13.123 38.704a19.46 19.46 0 007 1.296c2.782 0 5.43-.584 7.825-1.63" stroke="#F7F7F6" stroke-width="2" stroke-miterlimit="10" stroke-linecap="round" stroke-linejoin="round"/></svg>
